src/Pure-Dark/16/symbolic/status/arch-updates-symbolic.svg

<svg width="16" height="16" version="1.1" xmlns="http://www.w3.org/2000/svg">
 <path d="m7 4h2v2h-2zm0 3h2v5h-2z" fill="#f2f2f2"/>
 <circle cx="14" cy="14" r="2" fill="#5294e2" class="question"/>
 <path d="m8 0a8 8 0 0 0-8 8 8 8 0 0 0 8 8 8 8 0 0 0 3.293-0.71094 3 3 0 0 1-0.27539-0.97266 7 7 0 0 1-3.0176 0.68359 7 7 0 0 1-7-7 7 7 0 0 1 6.9062-7 7 7 0 0 1 0.09375 0 7 7 0 0 1 7 7 7 7 0 0 1-0.68359 3.0176 3 3 0 0 1 0.97461 0.27344 8 8 0 0 0 0.70898-3.291 8 8 0 0 0-8-8z" fill="#f2f2f2"/>
</svg>

<?xml version="1.0" encoding="UTF-8" standalone="no"?>
<svg
   width="16"
   height="16"
   version="1.1"
   id="svg2"
   sodipodi:docname="arch-updates-symbolic.svg"
   inkscape:version="1.4.2 (ebf0e940d0, 2025-05-08)"
   xmlns:inkscape="http://www.inkscape.org/namespaces/inkscape"
   xmlns:sodipodi="http://sodipodi.sourceforge.net/DTD/sodipodi-0.dtd"
   xmlns="http://www.w3.org/2000/svg"
   xmlns:svg="http://www.w3.org/2000/svg">
  <defs
     id="defs2">
     <style
        id="current-color-scheme"
        type="text/css">
        .ColorScheme-Text { color:#f2f2f2; }
        .ColorScheme-NeutralText { color:#f67400; }
        .ColorScheme-PositiveText { color:#37c837; }
        .ColorScheme-NegativeText { color:#f44336; }
        .ColorScheme-Highlight { color:#3daee9; }
     </style>
  </defs>
  <sodipodi:namedview
     id="namedview2"
     pagecolor="#ffffff"
     bordercolor="#000000"
     borderopacity="0.25"
     inkscape:showpageshadow="2"
     inkscape:pageopacity="0.0"
     inkscape:pagecheckerboard="0"
     inkscape:deskcolor="#d1d1d1"
     inkscape:zoom="49.6875"
     inkscape:cx="8"
     inkscape:cy="8"
     inkscape:window-width="1920"
     inkscape:window-height="1010"
     inkscape:window-x="0"
     inkscape:window-y="0"
     inkscape:window-maximized="1"
     inkscape:current-layer="svg2" />
  <path
     id="path1"
     style="fill:currentColor"
     class="ColorScheme-Text"
     d="M 8 0 A 8 8 0 0 0 0 8 A 8 8 0 0 0 8 16 A 8 8 0 0 0 11.292969 15.289062 A 3 3 0 0 1 11.017578 14.316406 A 7 7 0 0 1 8 15 A 7 7 0 0 1 1 8 A 7 7 0 0 1 7.90625 1 A 7 7 0 0 1 8 1 A 7 7 0 0 1 15 8 A 7 7 0 0 1 14.316406 11.017578 A 3 3 0 0 1 15.291016 11.291016 A 8 8 0 0 0 16 8 A 8 8 0 0 0 8 0 z M 7 4 L 7 6 L 9 6 L 9 4 L 7 4 z M 7 7 L 7 12 L 9 12 L 9 7 L 7 7 z " />
  <circle
     cx="14"
     cy="14"
     r="2"
     style="fill:currentColor"
     class="ColorScheme-Highlight question"
     id="circle1" />
</svg>
